X:5849
T:Gan Ainm
R:Polka
S:
H:
N:
D:John Carty:At The Racket
Z:Adrian Scahill
M:2/4
L:1/16
K:G
G3A G2D2|E2G2 D3G|E2A2 A2GA|B2A2 AcBA|\
G3A G2D2|E2G2 D3G|E2A2 GFEF|1 G4 G2BA:|2 G3F G2Bc||\
d3e d2G2|e3f e2c2|A2e2 e2de|f3g fed^c|\
B2f2 f2ef|g4 fgfe|d2G2 AGAB|G3F G4:||
